documentation/_static/images/logo-youtube-dark.svg

<svg width="32px" height="32px" viewBox="0 0 32 32" version="1.1" xmlns="http://www.w3.org/2000/svg" xmlns:xlink="http://www.w3.org/1999/xlink">
    <defs>
        <polygon id="path-1" points="0.266666667 0.363636364 19.2666667 0.363636364 19.2666667 13.3636364 0.266666667 13.3636364"></polygon>
    </defs>
    <g id="Page-1" stroke="none" stroke-width="1" fill="none" fill-rule="evenodd">
        <g id="Footer" transform="translate(-1143.000000, -439.000000)">
            <g id="footer" transform="translate(0.000000, 200.000000)">
                <g id="Twitter" transform="translate(1143.000000, 239.000000)">
                    <circle id="Oval" fill="#CCCDD1" cx="16" cy="16" r="16"></circle>
                    <g id="Group-3" transform="translate(6.000000, 9.000000)">
                        <mask id="mask-2" fill="white">
                            <use xlink:href="#path-1"></use>
                        </mask>
                        <g id="Clip-2"></g>
                        <path d="M7.8729924,9.64708726 L7.8729924,4.08018547 L12.8184285,6.86363636 L7.8729924,9.64708726 Z M17.2006266,0.761297078 C15.7138423,0.363636364 9.76670489,0.363636364 9.76670489,0.363636364 C9.76670489,0.363636364 3.81950814,0.363636364 2.3327238,0.746091721 C1.5344866,0.960069399 0.876999507,1.60258279 0.658035103,2.39784619 C0.266666667,3.85077029 0.266666667,6.86363636 0.266666667,6.86363636 C0.266666667,6.86363636 0.266666667,9.89193994 0.658035103,11.3294265 C0.87723706,12.1246899 1.51892689,12.751998 2.3327238,12.9660337 C3.83506786,13.3636364 9.76670489,13.3636364 9.76670489,13.3636364 C9.76670489,13.3636364 15.7138423,13.3636364 17.2006266,12.981181 C18.0144829,12.7672033 18.6561133,12.1401274 18.8753747,11.344864 C19.2665867,9.89193994 19.2665867,6.87884172 19.2665867,6.87884172 C19.2665867,6.87884172 19.2822434,3.85077029 18.8753747,2.39784619 C18.6561133,1.60258279 18.0144829,0.975274756 17.2006266,0.761297078 L17.2006266,0.761297078 Z" id="Fill-1" fill="#000000" mask="url(#mask-2)"></path>
                    </g>
                </g>
            </g>
        </g>
    </g>
</svg>

<svg width="32" height="32" viewBox="0 0 32 32" xmlns="http://www.w3.org/2000/svg" xmlns:xlink="http://www.w3.org/1999/xlink"><defs><path id="a" d="M.267.364h19v13h-19z"/></defs><g fill="none" fill-rule="evenodd"><circle fill="#CCCDD1" cx="16" cy="16" r="16"/><g transform="translate(6 9)"><mask id="b" fill="#fff"><use xlink:href="#a"/></mask><path d="M7.873 9.647V4.08l4.945 2.784-4.945 2.783zM17.201.761C15.714.364 9.767.364 9.767.364s-5.947 0-7.434.382A2.401 2.401 0 00.658 2.398C.267 3.85.267 6.864.267 6.864s0 3.028.391 4.465c.22.796.86 1.423 1.675 1.637 1.502.398 7.434.398 7.434.398s5.947 0 7.434-.383a2.354 2.354 0 001.674-1.636c.392-1.453.392-4.466.392-4.466s.015-3.028-.392-4.481A2.354 2.354 0 0017.201.76z" fill="#000" mask="url(#b)"/></g></g></svg>
